src/assets/images/pinkStar.svg

<svg width="18" height="18" viewBox="0 0 18 18" fill="none" xmlns="http://www.w3.org/2000/svg">
<g clip-path="url(#clip0_2022_634)">
<mask id="mask0_2022_634" style="mask-type:luminance" maskUnits="userSpaceOnUse" x="0" y="0" width="18" height="18">
<path d="M17.6925 0.0906982H0.510742V17.2724H17.6925V0.0906982Z" fill="white"/>
</mask>
<g mask="url(#mask0_2022_634)">
<path d="M8.23667 0.617201C8.59964 -0.0848027 9.60358 -0.0848027 9.96654 0.617201L12.2779 5.08753C12.3705 5.26666 12.5165 5.41262 12.6957 5.50525L17.1659 7.81662C17.868 8.17959 17.868 9.18353 17.1659 9.5465L12.6957 11.8579C12.5165 11.9505 12.3705 12.0964 12.2779 12.2756L9.96654 16.7459C9.60358 17.4479 8.59964 17.4479 8.23667 16.7459L5.92529 12.2756C5.83267 12.0964 5.68671 11.9505 5.50757 11.8579L1.03725 9.5465C0.335241 9.18353 0.335241 8.17959 1.03725 7.81662L5.50757 5.50525C5.68671 5.41262 5.83267 5.26666 5.92529 5.08753L8.23667 0.617201Z" fill="#7551DC"/>
</g>
</g>
<defs>
<clipPath id="clip0_2022_634">
<rect width="17.1817" height="17.1817" fill="white" transform="translate(0.510742 0.0906982)"/>
</clipPath>
</defs>
</svg>

<svg width="18" height="18" viewBox="0 0 18 18" fill="none" xmlns="http://www.w3.org/2000/svg">
  <path d="M8.24 0.62c0.36-0.7 1.36-0.7 1.73 0l2.31 4.47c.09.18.24.33.42.42l4.47 2.31c.7.36.7 1.36 0 1.73l-4.47 2.31a0.875 0.875 0 00-.42.42l-2.31 4.47c-.36.7-1.36.7-1.73 0l-2.31-4.47a0.875 0.875 0 00-.42-.42L1.04 9.55c-.7-.36-.7-1.36 0-1.73l4.47-2.31a0.875 0.875 0 00.42-.42L8.24 0.62z" fill="#7551DC"/>
</svg>
